X:1
T:Alle de voksende Skygger
T:Alle de voksende Skygger
T:(J. P. Jacobsen)
T:Agathe Backer Grøndahl, Op. 67. No.1.
C:Agathe Backer Grøndahl, Op. 67. No.1.
%%score [ 1 2 3 ]
L:1/8
Q:3/8=46
M:6/8
K:E
V:1 treble nm="S1"
V:2 treble nm="S2"
V:3 treble nm="A"
V:1
"^Tranquillo"!mp! ((((((G3 E)))))) F B | G3/2 G/ E F F B | c3/2 c/ A B F B |!<(! (c3 B3)!<)! | %4
w: Al- * le de|vok- sen- de Skyg- ger har|væ- vet sig sam- men til|En, _|
 f3/2 f/ d B F B | c3 d2 B |!<(! G G e c3/2 B/ c!<)! | d3- d3 | e3/2 d/ c d e c | (d>c) B (cd) B | %10
w: en- som paa Him- me- len|ly- ser en|Stjer- ne saa straa- le- de|ren, _|Sky- er- ne ha- ve saa|tun- * ge Drøm- * me,|
 c B ^A B3/2 A/ G | ^A2 d!<(! B3/2 A/ G!<)! |!f! ^A2 ^^f d3 |!>(! d3- d2 z!>)! | %14
w: Blom- ster- nes Øi- ne i|Dug- graad svøm- me, i|Dug- graad svøm-|me. _|
!p! (G3"^dolce" E) F B | G2 E F2 B | c3/2 c/e B2 B |"^dim." c3"^sost." G2 A |!pp! F6 | E3- E2 z |] %20
w: Un _ der- lig|Af- ten- vin- den|su- ser * Lun- den,|su- ser i|Lun-|den,. _|
V:2
!mp! (((E3 E))) F D | E3/2 E/ E F E D | C3/2 C/ E F D F |!<(! A2 E F3!<)! | d3/2 d/ B F D F | %5
w: Al- * le de|vok- sen- de Skyg- ger har|væ- vet sig sam- men til|En, _ _|en- som paa Him- me- len|
 ^A3 B2 D |!<(! E E c ^A3/2 G/ A!<)! | ^A3 ^B3 | c3/2 ^B/ c ^A A A | B>^A B G2 G | %10
w: ly- ser en|Stjer- ne saa straa- le- de|ren, _|Sky- er- ne ha- ve saa|tun- * ge Drøm- me,|
 E G E ^E3/2 E/ E | ^^F2 F!<(! ^E3/2 E/ E!<)! |!f! ^^F2 d A2 B |!>(! ^^F3- F2 z!>)! | %14
w: Blom- ster- nes Øi- ne i|Dug- graad svøm- me, i|Dug- graad svøm- *|me. _|
!p! E3"^dolce" E F D | E2 E F2 D | A3/2 A/E FD G |"^dim." A3"^sost." E2 E |!pp! E3 D3 | E3- E2 z |] %20
w: Un _ der- lig|Af- ten- vin- den|su- ser _ Lun- * den,|su- ser i|Lun- *|den. _|
V:3
!mp! E3 C D B, | E3/2 E/ C D C B, | A,3/2 A,/ C D B, D |!<(! A,2 C D3!<)! | B3/2 B/ F D B, D | %5
w: Al- * le de|vok- sen- de Skyg- ger har|væ- vet sig sam- men til|En, _ _|en- som paa Him- me- len|
 F3 B,2 B, |!<(! C E C F3/2 F/ F!<)! | ^^F3 G3 | C3/2 F/ E F F F | B,>E D E2 E | %10
w: ly- ser en|Stjer- ne saa straa- le- de|ren, _|Sky- er- ne ha- ve saa|tun- * ge Drøm- me,|
 ^A, B, C ^^C3/2 C/ ^E | D2 ^A,!<(! ^^C3/2 C/ ^E!<)! |!f! D2 ^A ^^F2 G |!>(! D3- D2 z!>)! | %14
w: Blom- ster- nes Øi- ne i|Dug- graad svøm- me, i|Dug- graad svøm- *|me. _|
!p! E3"^dolce" C D B, | E2 C D2 B, | A,3/2 A,/C DB, E |"^dim." A,3"^sost." C2 =C |!pp! B,6 | %19
w: Un _ der- lig|Af- ten- vin- den|su- ser _ Lun- * den,|su- ser i|Lun-|
 E3- E2 z |] %20
w: den. _|

